X:1
T: James Moir (Banker, Portsoy)
C:Alexander Walker
R:Strathspey
Q: 128
K:G
M:4/4
L:1/16
|:B2|d3B G3B dg3 d3B|d3B G3B A3B c3e|d3B G3B G3B d3B|c3A B3G A4 G3B|
d3B G3B dg3 d3B|d3B G3B EA3 F3D|B,3G, D3G, E3A, F3A,|GFED E3F G6f2|
g3a g3d eg3 d3B|g3a g3B eA3 A3f|g3a g3d eg3 d3B|E3A F3D G4 G3f|
g3a g3d eg3 d3B|g3a g3G E3A F3D|B,3G, D3G, E3A, F3A,|GFED E3F G6:|
